X:10
T:Not Safe with a Razor
T:(The Eighth of October)
R:reel 
C: 1975, 2010 L.E. McCullough  
M:4/4
L:1/8
K:ADor
A |:(3B^cd ed e~A3 | ~G2Be dBAG | A~g3 a2ge | d~B3 GBdB |
~A2ed e ~A3 | ~G2Be dBAG | A~g3 abge | dBGA B~A3 :|
|:e~a3 abge | d~g3 b~g3 | e~a3 ~g3e | dBGA B~A3 |
e~a3 gedB | ~G2 Be dBAG |A~g3 abge | dBgB B~A3 :|]
<end>
<start>
